dist/2.0.0/img/icon-pdf.svg

<svg width="21" height="23" viewBox="0 0 21 23" xmlns="http://www.w3.org/2000/svg"><title>icon-pdf</title><path d="M1.229 22.607c.225.246.516.359.853.359h16.812c.337 0 .628-.113.853-.359.247-.225.359-.517.359-.853V7.343c0-.336-.09-.718-.247-1.122-.18-.381-.382-.718-.606-.943l-3.905-3.905c-.225-.225-.562-.427-.943-.606C14.001.61 13.619.52 13.282.52h-11.2c-.337 0-.628.112-.853.359-.247.225-.359.516-.359.853v20.022c0 .336.112.628.359.853zM2.464 2.114h9.629v5.207c0 .337.112.629.359.853.224.247.516.359.853.359h5.207v12.839H2.464V2.114zm1.683 17.35c.045.023.067.045.09.045l.292.157c.112.068.224.09.359.09.74 0 1.75-1.1 3.03-3.277 1.414-.494 3.053-.853 4.916-1.055.516.292 1.054.494 1.616.673.561.157 1.055.247 1.459.247.538 0 .83-.157.875-.494.022 0 .022-.022.022-.022l.023-.022c.112-.247.112-.472-.023-.651-.247-.404-.987-.606-2.222-.606-.494 0-.987.022-1.481.089a13.706 13.706 0 0 1-1.033-.695c-.763-.629-1.369-1.617-1.84-2.986.112-.583.157-1.391.179-2.401v-.382c0-.045 0-.067-.022-.112.022 0 .045-.045.067-.09.068-.382.023-.673-.112-.853a.591.591 0 0 0-.449-.18h-.269c-.269 0-.449.158-.539.494-.112.427-.135.965-.067 1.594.045.651.179 1.324.381 1.998a20.198 20.198 0 0 1-1.302 3.277c-.471.942-.92 1.75-1.346 2.469 0-.023 0-.023-.023-.045-.09-.135-.179-.157-.291-.09-.719.382-1.257.786-1.662 1.212-.381.449-.628.831-.695 1.145-.023.224 0 .381.067.471zm1.324-1.324a6.147 6.147 0 0 1 1.1-1.033c-.718 1.1-1.302 1.774-1.728 1.976.112-.247.314-.562.628-.943zm3.367-3.345c.472-.92.808-1.75 1.033-2.469.426.921.965 1.639 1.616 2.2a.55.55 0 0 0 .202.18c.09.067.135.112.157.112a18.152 18.152 0 0 0-3.569 1.01c.135-.225.314-.584.561-1.033zm.988-7.227v-.023l.022-.022c.09.112.157.247.157.427v.022l.023.022v.023c-.023.045-.045.067-.045.112-.067.337-.09.516-.09.539-.045.292-.09.494-.09.538-.112-.74-.089-1.301.023-1.638zm3.86-5.365c.247.09.404.18.517.292l3.928 3.928c.112.112.202.27.292.516h-4.737V2.203zm2.694 14.423l.022.022c-.045.023-.112.023-.224.023-.404 0-.92-.112-1.571-.337.987 0 1.571.09 1.773.292z" fill-rule="evenodd"/></svg>

<?xml version="1.0" encoding="UTF-8" standalone="no"?>
<svg width="21px" height="23px" viewBox="0 0 21 23" version="1.1" xmlns="http://www.w3.org/2000/svg" xmlns:xlink="http://www.w3.org/1999/xlink" xmlns:sketch="http://www.bohemiancoding.com/sketch/ns">
    <!-- Generator: Sketch 3.3 (11970) - http://www.bohemiancoding.com/sketch -->
    <title>icon-pdf</title>
    <desc>Created with Sketch.</desc>
    <defs></defs>
    <g id="Page-1" stroke="none" stroke-width="1" fill="none" fill-rule="evenodd" sketch:type="MSPage">
        <g id="Desktop" sketch:type="MSArtboardGroup" transform="translate(-617.000000, -383.000000)" fill="#000000">
            <g id="icon-pdf" sketch:type="MSLayerGroup" transform="translate(617.000000, 383.000000)">
                <path d="M1.229,22.607 C1.454,22.853 1.745,22.966 2.082,22.966 L18.894,22.966 C19.231,22.966 19.522,22.853 19.747,22.607 C19.994,22.382 20.106,22.09 20.106,21.754 L20.106,7.343 C20.106,7.007 20.016,6.625 19.859,6.221 C19.679,5.84 19.477,5.503 19.253,5.278 L15.348,1.373 C15.123,1.148 14.786,0.946 14.405,0.767 C14.001,0.61 13.619,0.52 13.282,0.52 L2.082,0.52 C1.745,0.52 1.454,0.632 1.229,0.879 C0.982,1.104 0.87,1.395 0.87,1.732 L0.87,21.754 C0.87,22.09 0.982,22.382 1.229,22.607 L1.229,22.607 Z M2.464,2.114 L12.093,2.114 L12.093,7.321 C12.093,7.658 12.205,7.95 12.452,8.174 C12.676,8.421 12.968,8.533 13.305,8.533 L18.512,8.533 L18.512,21.372 L2.464,21.372 L2.464,2.114 L2.464,2.114 Z M4.147,19.464 C4.192,19.487 4.214,19.509 4.237,19.509 L4.529,19.666 C4.641,19.734 4.753,19.756 4.888,19.756 C5.628,19.756 6.638,18.656 7.918,16.479 C9.332,15.985 10.971,15.626 12.834,15.424 C13.35,15.716 13.888,15.918 14.45,16.097 C15.011,16.254 15.505,16.344 15.909,16.344 C16.447,16.344 16.739,16.187 16.784,15.85 C16.806,15.85 16.806,15.828 16.806,15.828 L16.829,15.806 C16.941,15.559 16.941,15.334 16.806,15.155 C16.559,14.751 15.819,14.549 14.584,14.549 C14.09,14.549 13.597,14.571 13.103,14.638 C12.699,14.391 12.34,14.145 12.07,13.943 C11.307,13.314 10.701,12.326 10.23,10.957 C10.342,10.374 10.387,9.566 10.409,8.556 L10.409,8.174 C10.409,8.129 10.409,8.107 10.387,8.062 C10.409,8.062 10.432,8.017 10.454,7.972 C10.522,7.59 10.477,7.299 10.342,7.119 C10.23,7.007 10.095,6.939 9.893,6.939 L9.624,6.939 C9.355,6.939 9.175,7.097 9.085,7.433 C8.973,7.86 8.95,8.398 9.018,9.027 C9.063,9.678 9.197,10.351 9.399,11.025 C9.085,12.08 8.659,13.179 8.097,14.302 C7.626,15.244 7.177,16.052 6.751,16.771 C6.751,16.748 6.751,16.748 6.728,16.726 C6.638,16.591 6.549,16.569 6.437,16.636 C5.718,17.018 5.18,17.422 4.775,17.848 C4.394,18.297 4.147,18.679 4.08,18.993 C4.057,19.217 4.08,19.374 4.147,19.464 L4.147,19.464 Z M5.471,18.14 C5.763,17.781 6.145,17.422 6.571,17.107 C5.853,18.207 5.269,18.881 4.843,19.083 C4.955,18.836 5.157,18.521 5.471,18.14 L5.471,18.14 Z M8.838,14.795 C9.31,13.875 9.646,13.045 9.871,12.326 C10.297,13.247 10.836,13.965 11.487,14.526 C11.509,14.571 11.577,14.638 11.689,14.706 C11.779,14.773 11.824,14.818 11.846,14.818 C10.589,15.042 9.399,15.379 8.277,15.828 C8.412,15.603 8.591,15.244 8.838,14.795 L8.838,14.795 Z M9.826,7.568 L9.826,7.545 L9.848,7.523 C9.938,7.635 10.005,7.77 10.005,7.95 L10.005,7.972 L10.028,7.994 L10.028,8.017 C10.005,8.062 9.983,8.084 9.983,8.129 C9.916,8.466 9.893,8.645 9.893,8.668 C9.848,8.96 9.803,9.162 9.803,9.206 C9.691,8.466 9.714,7.905 9.826,7.568 L9.826,7.568 Z M13.686,2.203 C13.933,2.293 14.09,2.383 14.203,2.495 L18.131,6.423 C18.243,6.535 18.333,6.693 18.423,6.939 L13.686,6.939 L13.686,2.203 L13.686,2.203 Z M16.38,16.626 L16.402,16.648 C16.357,16.671 16.29,16.671 16.178,16.671 C15.774,16.671 15.258,16.559 14.607,16.334 C15.594,16.334 16.178,16.424 16.38,16.626 L16.38,16.626 Z" id="Fill-225" sketch:type="MSShapeGroup"></path>
            </g>
        </g>
    </g>
</svg>
